icons/knowledge-graph-24.svg

<svg id="icons" xmlns="http://www.w3.org/2000/svg" viewBox="0 0 24 24"><path d="M3.5,12c.01453,0,.02789-.004.04236-.00427l.93915,4.22613a2.49661,2.49661,0,1,0,3.34588,3.17273l7.18189,1.197a2.49125,2.49125,0,1,0,3.527-2.35907l1.90149-8.23883c.02118.00055.041.00629.06226.00629a2.5,2.5,0,1,0-2.0293-3.94922L13.93878,4.03656a2.50068,2.50068,0,1,0-4.69177.5282L5.15063,7.637A2.49547,2.49547,0,1,0,3.5,12Zm1.01849-.22186a2.50913,2.50913,0,0,0,1.25965-1.25965l4.22613.939C10.004,11.472,10,11.48541,10,11.5a2.48367,2.48367,0,0,0,.41644,1.37653L6.87653,16.41644A2.48323,2.48323,0,0,0,5.5,16c-.01447,0-.02789.004-.0423.00427ZM11.70154,9.1427a2.501,2.501,0,0,0-1.47974,1.339L5.99573,9.54236C5.996,9.52789,6,9.51453,6,9.5a2.47243,2.47243,0,0,0-.247-1.0647L9.8493,5.363a2.47653,2.47653,0,0,0,1.45691.61743ZM14,11v1a1,1,0,0,1-1,1H12a1,1,0,0,1-1-1V11a1,1,0,0,1,1-1h1A1,1,0,0,1,14,11Zm1.17261,8.60529L7.99072,18.408a2.483,2.483,0,0,0-.40716-1.28455l3.53991-3.53991a2.40518,2.40518,0,0,0,2.12323.28985l2.63269,4.73877A2.49429,2.49429,0,0,0,15.17261,19.60529ZM6,20H5a1,1,0,0,1-1-1V18a1,1,0,0,1,1-1H6a1,1,0,0,1,1,1v1A1,1,0,0,1,6,20Zm13,0v1a1,1,0,0,1-1,1H17a1,1,0,0,1-1-1V20a1,1,0,0,1,1-1h1A1,1,0,0,1,19,20Zm-1.43756-1.99365C17.54114,18.0058,17.52142,18,17.5,18a2.4656,2.4656,0,0,0-.7467.12659l-2.63269-4.73877a2.41147,2.41147,0,0,0,.78479-2.53162l3.638-1.81891a2.502,2.502,0,0,0,.91992.731ZM20,6h1a1,1,0,0,1,1,1V8a1,1,0,0,1-1,1H20a1,1,0,0,1-1-1V7A1,1,0,0,1,20,6Zm-1.93878.96344a2.30148,2.30148,0,0,0,.03332,1.1803l-3.63787,1.819a2.48289,2.48289,0,0,0-1.76294-.94318L12.29846,5.8573a2.49866,2.49866,0,0,0,1.23084-.90808ZM10,4V3a1,1,0,0,1,1-1h1a1,1,0,0,1,1,1V4a1,1,0,0,1-1,1H11A1,1,0,0,1,10,4ZM2,9A1,1,0,0,1,3,8H4A1,1,0,0,1,5,9v1a1,1,0,0,1-1,1H3a1,1,0,0,1-1-1Z"/><path fill="none" d="M0 0h24v24H0z"/></svg>

<svg xmlns="http://www.w3.org/2000/svg" viewBox="0 0 24 24"><path d="M3.5 12c.015 0 .028-.004.042-.004l.94 4.226a2.497 2.497 0 1 0 3.345 3.173l7.182 1.197a2.491 2.491 0 1 0 3.527-2.36l1.902-8.238c.021 0 .04.006.062.006a2.5 2.5 0 1 0-2.03-3.95l-4.53-2.012a2.5 2.5 0 1 0-4.692.528L5.151 7.637A2.495 2.495 0 1 0 3.5 12zm1.018-.222a2.51 2.51 0 0 0 1.26-1.26l4.226.94c0 .014-.004.027-.004.042a2.484 2.484 0 0 0 .416 1.377l-3.54 3.54A2.483 2.483 0 0 0 5.5 16c-.014 0-.028.004-.042.004zm7.184-2.635a2.501 2.501 0 0 0-1.48 1.339l-4.226-.94c0-.014.004-.027.004-.042a2.472 2.472 0 0 0-.247-1.065l4.096-3.072a2.477 2.477 0 0 0 1.457.617zM14 11v1a1 1 0 0 1-1 1h-1a1 1 0 0 1-1-1v-1a1 1 0 0 1 1-1h1a1 1 0 0 1 1 1zm1.173 8.605L7.99 18.408a2.483 2.483 0 0 0-.407-1.285l3.54-3.54a2.405 2.405 0 0 0 2.123.29l2.632 4.74a2.494 2.494 0 0 0-.706.992zM6 20H5a1 1 0 0 1-1-1v-1a1 1 0 0 1 1-1h1a1 1 0 0 1 1 1v1a1 1 0 0 1-1 1zm13 0v1a1 1 0 0 1-1 1h-1a1 1 0 0 1-1-1v-1a1 1 0 0 1 1-1h1a1 1 0 0 1 1 1zm-1.438-1.994c-.02 0-.04-.006-.062-.006a2.466 2.466 0 0 0-.747.127l-2.632-4.74a2.411 2.411 0 0 0 .784-2.53l3.638-1.82a2.502 2.502 0 0 0 .92.731zM20 6h1a1 1 0 0 1 1 1v1a1 1 0 0 1-1 1h-1a1 1 0 0 1-1-1V7a1 1 0 0 1 1-1zm-1.939.963a2.301 2.301 0 0 0 .034 1.18l-3.638 1.82a2.483 2.483 0 0 0-1.763-.943l-.396-3.163a2.499 2.499 0 0 0 1.231-.908zM10 4V3a1 1 0 0 1 1-1h1a1 1 0 0 1 1 1v1a1 1 0 0 1-1 1h-1a1 1 0 0 1-1-1zM2 9a1 1 0 0 1 1-1h1a1 1 0 0 1 1 1v1a1 1 0 0 1-1 1H3a1 1 0 0 1-1-1z"/><path fill="none" d="M0 0h24v24H0z"/></svg>
